src/24/actions/format-precision-less.svg

<svg xmlns="http://www.w3.org/2000/svg" viewBox="0 0 24 24">
  <defs id="defs3051">
    <style type="text/css" id="current-color-scheme">
      .ColorScheme-Text {
        color:#5d656b;
      }
      .ColorScheme-NegativeText {
        color:#da4453;
      }
      </style>
  </defs>
  <path 
     style="fill:currentColor;fill-opacity:0.5;stroke:none" 
     d="M 16.5 4 C 14.567 4 13 5.7909 13 8 L 13 9 L 13 11 C 13 13.2091 14.567 15 16.5 15 C 18.433 15 20 13.2091 20 11 L 20 9 L 20 8 C 20 5.7909 18.433 4 16.5 4 z M 16.5 5 C 17.88071 5 19 6.3431 19 8 L 19 11 C 19 12.6569 17.88071 14 16.5 14 C 15.11929 14 14 12.6569 14 11 L 14 8 C 14 6.3431 15.11929 5 16.5 5 z "
     class="ColorScheme-Text"/>
  <path 
     style="fill:currentColor;fill-opacity:1;stroke:none" 
     d="M 8.5 4 C 6.567 4 5 5.7909 5 8 L 5 9 L 5 11 C 5 13.2091 6.567 15 8.5 15 C 10.433 15 12 13.2091 12 11 L 12 9 L 12 8 C 12 5.7909 10.433 4 8.5 4 z M 8.5 5 C 9.88071 5 11 6.34315 11 8 L 11 11 C 11 12.65685 9.88071 14 8.5 14 C 7.11929 14 6 12.65685 6 11 L 6 8 C 6 6.34315 7.11929 5 8.5 5 z M 3 14 L 3 15 L 4 15 L 4 14 L 3 14 z "
     class="ColorScheme-Text"/>
  <path
     style="fill:currentColor;fill-opacity:1;stroke:none" 
     d="M 15.085938 16 L 14.378906 16.707031 L 15.792969 18.121094 L 14.378906 19.535156 L 15.085938 20.242188 L 16.5 18.828125 L 17.914062 20.242188 L 18.621094 19.535156 L 17.207031 18.121094 L 18.621094 16.707031 L 17.914062 16 L 16.5 17.414062 L 15.085938 16 z "
     class="ColorScheme-NegativeText"
     />
</svg>

<svg xmlns="http://www.w3.org/2000/svg" viewBox="0 0 24 24"><defs id="defs3051"><style type="text/css" id="current-color-scheme">.ColorScheme-Text{color:#5d656b}</style></defs><path d="M16.5 4C14.567 4 13 5.79 13 8v3c0 2.21 1.567 4 3.5 4s3.5-1.79 3.5-4V8c0-2.21-1.567-4-3.5-4zm0 1C17.88 5 19 6.343 19 8v3c0 1.657-1.12 3-2.5 3S14 12.657 14 11V8c0-1.657 1.12-3 2.5-3z" class="ColorScheme-Text" fill="currentColor" fill-opacity=".5"/><path d="M8.5 4C6.567 4 5 5.79 5 8v3c0 2.21 1.567 4 3.5 4s3.5-1.79 3.5-4V8c0-2.21-1.567-4-3.5-4zm0 1C9.88 5 11 6.343 11 8v3c0 1.657-1.12 3-2.5 3S6 12.657 6 11V8c0-1.657 1.12-3 2.5-3zM3 14v1h1v-1H3z" class="ColorScheme-Text" fill="currentColor"/><path d="M15.086 16l-.707.707 1.414 1.414-1.414 1.414.707.707 1.414-1.414 1.414 1.414.707-.707-1.414-1.414 1.414-1.414-.707-.707-1.414 1.414L15.086 16z" fill="currentColor" color="#da4453"/></svg>
